icons/breezeDark/actions/24/engraving.svg

<svg viewBox="0 0 24 24" xmlns="http://www.w3.org/2000/svg" xmlns:xlink="http://www.w3.org/1999/xlink"><linearGradient id="a" gradientUnits="userSpaceOnUse" x1="11" x2="14" y1="19.5" y2="8"><stop offset="0" stop-color="#c0c0c0"/><stop offset="1" stop-opacity="0"/></linearGradient><path d="m7.5 5.5h9v2.5l-3.5 11.5h-2l-3.5-11.5z" fill="url(#a)" fill-rule="evenodd"/><path d="m7.5 5.5v2.5l3.5 11.5h2l3.5-11.5v-2.5" fill="none" stroke="#c0c0c0"/></svg>

<?xml version="1.0" encoding="UTF-8" standalone="no"?>
<svg
   xmlns:dc="http://purl.org/dc/elements/1.1/"
   xmlns:cc="http://creativecommons.org/ns#"
   xmlns:rdf="http://www.w3.org/1999/02/22-rdf-syntax-ns#"
   xmlns:svg="http://www.w3.org/2000/svg"
   xmlns="http://www.w3.org/2000/svg"
   xmlns:xlink="http://www.w3.org/1999/xlink"
   xmlns:sodipodi="http://sodipodi.sourceforge.net/DTD/sodipodi-0.dtd"
   xmlns:inkscape="http://www.inkscape.org/namespaces/inkscape"
   viewBox="0 0 24 24"
   version="1.1"
   id="svg890"
   sodipodi:docname="stroke-cap-square.svg"
   inkscape:version="0.92.4 (5da689c313, 2019-01-14)">
  <metadata
     id="metadata894">
    <rdf:RDF>
      <cc:Work
         rdf:about="">
        <dc:format>image/svg+xml</dc:format>
        <dc:type
           rdf:resource="http://purl.org/dc/dcmitype/StillImage" />
        <dc:title></dc:title>
      </cc:Work>
    </rdf:RDF>
  </metadata>
  <sodipodi:namedview
     pagecolor="#ffffff"
     bordercolor="#666666"
     borderopacity="1"
     objecttolerance="10"
     gridtolerance="10"
     guidetolerance="10"
     inkscape:pageopacity="0"
     inkscape:pageshadow="2"
     inkscape:window-width="1835"
     inkscape:window-height="1058"
     id="namedview892"
     showgrid="true"
     inkscape:zoom="36.875"
     inkscape:cx="12"
     inkscape:cy="12"
     inkscape:window-x="77"
     inkscape:window-y="-8"
     inkscape:window-maximized="1"
     inkscape:current-layer="svg890">
    <inkscape:grid
       type="xygrid"
       id="grid896"
       empspacing="4"
       spacingx="0.5"
       spacingy="0.5" />
  </sodipodi:namedview>
  <defs
     id="defs3051">
    <linearGradient
       inkscape:collect="always"
       id="linearGradient978">
      <stop
         style="stop-color:#c0c0c0;stop-opacity:1"
         offset="0"
         id="stop974" />
      <stop
         style="stop-color:#000000;stop-opacity:0"
         offset="1"
         id="stop976" />
    </linearGradient>
    <style
       type="text/css"
       id="current-color-scheme">
      .ColorScheme-Text {
        color:#c0c0c0;
      }
      </style>
    <linearGradient
       inkscape:collect="always"
       xlink:href="#linearGradient978"
       id="linearGradient988"
       x1="11"
       y1="19.5"
       x2="14"
       y2="8"
       gradientUnits="userSpaceOnUse" />
  </defs>
  <path
     style="fill:url(#linearGradient988);fill-opacity:1;fill-rule:evenodd;stroke:none;stroke-width:1;stroke-miterlimit:4;stroke-dasharray:none;stroke-opacity:1"
     d="m 7.5,5.5 h 9 V 8 L 13,19.5 H 11 L 7.5,8 Z"
     id="rect971"
     inkscape:connector-curvature="0"
     sodipodi:nodetypes="ccccccc" />
  <path
     style="fill:none;stroke:#c0c0c0;stroke-width:1px;stroke-linecap:butt;stroke-linejoin:miter;stroke-opacity:1"
     d="M 7.5,5.5 V 8 L 11,19.5 h 2 L 16.5,8 V 5.5"
     id="path898"
     inkscape:connector-curvature="0"
     sodipodi:nodetypes="cccccc" />
</svg>
